svgs/sharp-solid/apartment.svg

<svg xmlns="http://www.w3.org/2000/svg" viewBox="0 0 576 512"><!--! Font Awesome Pro 6.6.0 by @fontawesome - https://fontawesome.com License - https://fontawesome.com/license (Commercial License) Copyright 2024 Fonticons, Inc. --><path d="M448 0L128 0l0 96L0 96 0 512l128 0 32 0 96 0 0-128 64 0 0 128 96 0 32 0 128 0 0-320-128 0L448 0zM320 320l0-64 64 0 0 64-64 0zm192 96l-64 0 0-64 64 0 0 64zM64 320l0-64 64 0 0 64-64 0zm64 96l-64 0 0-64 64 0 0 64zm64-96l0-64 64 0 0 64-64 0zM384 64l0 64-64 0 0-64 64 0zM192 64l64 0 0 64-64 0 0-64zM384 224l-64 0 0-64 64 0 0 64zm64 96l0-64 64 0 0 64-64 0zM128 224l-64 0 0-64 64 0 0 64zm64 0l0-64 64 0 0 64-64 0z"/></svg>

<svg xmlns="http://www.w3.org/2000/svg" viewBox="0 0 576 512"><!--! Font Awesome Pro 6.4.2 by @fontawesome - https://fontawesome.com License - https://fontawesome.com/license (Commercial License) Copyright 2023 Fonticons, Inc. --><path d="M448 0H128V96H0V512H128h32 96V384h64V512h96 32H576V192H448V0zM320 320V256h64v64H320zm192 96H448V352h64v64zM64 320V256h64v64H64zm64 96H64V352h64v64zm64-96V256h64v64H192zM384 64v64H320V64h64zM192 64h64v64H192V64zM384 224H320V160h64v64zm64 96V256h64v64H448zM128 224H64V160h64v64zm64 0V160h64v64H192z"/></svg>
